X:16
T:Joannie Madden's
R:reel
C:Tommy Basker
O:20th Century Cape Breton
S:Silver Apple News,1994
B:The Lighthouse Collection, ISBN 0-9691181-5-5
D:The Tin Sandwich, Silver Apple Music
H:Written for Tommy's cousin, Joannie Madden of New Waterford, NS
Z:Paul Stewart Cranford (P.S.C.), <http://www.cranfordpub.com>
L:1/8
Q:333
M:C|
K:G
E|DGGA GDGA|Bdde dBGd|edef gage|dBGB AGEG|  
DGGA GDGA|Bdde dBGd|edef gage|dBAB G2 G:|  
|:z|gfed egge|dBGB AGEG|gfed efgb|agbg agef|  
gfed egge|dBGB AGEG|DEGA Bdge|dBAB G2 G:|
